X: 757
T: Zhu ashiza
%%abc-version 2.0
%%abcx-abcm2ps-target-version 5.9.1 (29 Sep 2008)
%%abc-creator hum2abc beta
%%abcx-conversion-date 2013/10/02 07:52:30
%%abc-edited-by Helmut Schaffrath
%%humdrum-veritas 4035519127
%%humdrum-veritas-data 1573137899
%%continueall 1
%%barnumbers 0
L: 1/8
M: 2/4
K: F
G A c d [I:setbarnb 1]| 
c AG2 | 
c d c A | 
G4 | 
c df2 | 
f dc2 | 
d f c A | 
G4 | 
G Ac2 | 
Af2A | 
A c A G | 
F4 | 
F DC2 | 
A/ c/ A/ G/F2 | 
G> A F D | 
C4 | 
F> G A c | 
G3A | 
c> f d c | 
F4 | 
F DC2 | 
A GF2 | 
A G F D | 
C4 |]  



